!! 00000] TT[00
!! NN
!!!OTL: Mei ai laodong hao gege
!!!ARE: Asia, China,ÿHainan, Danxian
!! Ethnic Group: Han
!! II, 404
!!!SCT: C0248
!!!YEM: Copyright 1995, estate of Helmut Schaffrath.
**kern
*ICvox
*Ivox
*M2/4
*k[f#c#g#]
*A:
{16cc#
16ee
16cc#
16b
8.a
16f#
=1
8f#
16f#
16a
4b}
=2
{16cc#
16ee
16cc#
16b
8.a
16f#
=3
8f#
16f#
16a
8b
8cc#
=4
16b
16a
16f#
16a
8b
8r}
=5
{8b
8b
8ee
16cc#
16ee
=6
8b
8b
8ee
16cc#
16ee
=7
8b
16cc#
16b
8a
16b
16a
=8
8f#
8r}
{16f#
16a
16b
16a
=9
8f#
16e
16f#
16a
16b
16a
16f#
=10
2e}
==
!!!AGN: Xiaodiao, Diaosheng. Biaoda aiqing
!! Die zweite Strophe endet -5_0_0__  statt -5___
!!!ONB: ESAC (Essen Associative Code) Database: CHINA
!!!AMT: simple duple
!!!AIN: vox
!!!EED: Helmut Schaffrath
!!!EEV: 1.0
*-
